X: 1212
T: Albert Rogers Lancers Tune, Fig 1
B: australian traditional tunes wiki
M:2/4
L:1/8
R: Polka
Q: 1/4=100
K:G
V:1 
|:"G"G>A BD|GAB2|"D7"A2A>B|AG FD|"G"G>A BD|GAB2|"D7"A>B c/A/F/A/|"G"G2G2:|
|:"G"d>e d/c/B/A/|GD G>A|BB dB|"D7"BAA2|"G"d>e d/c/B/A/|GD G>A|Bd "D7"cA|"G"G2G2:|
% abcbook-tune_id 6342d53a04ea79d604e09e73


% abcbook-boost 0
% abcbook-tablature 
% abcbook-transpose 
% abcbook-lastupdated 1665324354456
% abcbook-soundfonts 
% abcbook-repeats 1
% NFF Book 2022
% Bush Traditions recording played by Ian Hayden

